svg/fluentui-system-icons/ic_fluent_resize_small_24_filled.svg

<svg width="24" height="24" viewBox="0 0 24 24" fill="none" xmlns="http://www.w3.org/2000/svg">
<path d="M6.25 4.5C5.2835 4.5 4.5 5.2835 4.5 6.25V7.75C4.5 8.16421 4.16421 8.5 3.75 8.5C3.33579 8.5 3 8.16421 3 7.75V6.25C3 4.45507 4.45507 3 6.25 3H7.75C8.16421 3 8.5 3.33579 8.5 3.75C8.5 4.16421 8.16421 4.5 7.75 4.5H6.25ZM10.2 8C8.95737 8 7.95001 9.00736 7.95001 10.25V13.75C7.95001 14.9926 8.95737 16 10.2 16H13.7C14.9427 16 15.95 14.9926 15.95 13.75V10.25C15.95 9.00736 14.9427 8 13.7 8H10.2ZM17.75 4.5C18.7165 4.5 19.5 5.2835 19.5 6.25V7.75C19.5 8.16421 19.8358 8.5 20.25 8.5C20.6642 8.5 21 8.16421 21 7.75V6.25C21 4.45507 19.5449 3 17.75 3H16.25C15.8358 3 15.5 3.33579 15.5 3.75C15.5 4.16421 15.8358 4.5 16.25 4.5L17.75 4.5ZM17.75 19.5C18.7165 19.5 19.5 18.7165 19.5 17.75V16.25C19.5 15.8358 19.8358 15.5 20.25 15.5C20.6642 15.5 21 15.8358 21 16.25V17.75C21 19.5449 19.5449 21 17.75 21H16.25C15.8358 21 15.5 20.6642 15.5 20.25C15.5 19.8358 15.8358 19.5 16.25 19.5H17.75ZM6.25 19.5C5.2835 19.5 4.5 18.7165 4.5 17.75L4.5 16.25C4.5 15.8358 4.16421 15.5 3.75 15.5C3.33579 15.5 3 15.8358 3 16.25V17.75C3 19.5449 4.45507 21 6.25 21H7.75C8.16421 21 8.5 20.6642 8.5 20.25C8.5 19.8358 8.16421 19.5 7.75 19.5H6.25Z" fill="#212121"/>
</svg>

<svg xmlns="http://www.w3.org/2000/svg" width="24" height="24"><path d="M6.25 4.5A1.75 1.75 0 0 0 4.5 6.25v1.5a.75.75 0 0 1-1.5 0v-1.5A3.25 3.25 0 0 1 6.25 3h1.5a.75.75 0 0 1 0 1.5h-1.5ZM10.2 8a2.25 2.25 0 0 0-2.25 2.25v3.5A2.25 2.25 0 0 0 10.2 16h3.5a2.25 2.25 0 0 0 2.25-2.25v-3.5A2.25 2.25 0 0 0 13.7 8h-3.5Zm7.55-3.5c.966 0 1.75.784 1.75 1.75v1.5a.75.75 0 0 0 1.5 0v-1.5A3.25 3.25 0 0 0 17.75 3h-1.5a.75.75 0 0 0 0 1.5h1.5Zm0 15a1.75 1.75 0 0 0 1.75-1.75v-1.5a.75.75 0 0 1 1.5 0v1.5A3.25 3.25 0 0 1 17.75 21h-1.5a.75.75 0 0 1 0-1.5h1.5Zm-11.5 0a1.75 1.75 0 0 1-1.75-1.75v-1.5a.75.75 0 0 0-1.5 0v1.5A3.25 3.25 0 0 0 6.25 21h1.5a.75.75 0 0 0 0-1.5h-1.5Z"/></svg>
